X:1
T:Canon in D
T:Arr.Eliaz Bobadilla(Flute Cool)
%%score 1 2
L:1/8
M:4/4
K:D
V:1 treble nm="Flute" snm="Fl."
V:2 treble nm="Flute" snm="Fl."
V:1
 z FAd z EAc | z DFB z CFA | z Bdg z Adf | z Bdg z CEA | f4 e4 | d4 c4 | B4 A4 | B4 c4 | d4 c4 | %9
 B4 A4 | G4 F4 | G4 A4 | dc d2 c4 | d2 f2 a3 b | gfeg fedc | BABd d2 c2 | f4 e4 | dd f2 a3 b | %18
 gfeg fedc | BABd d2 c2 | af/g/ af/g/ a/A/B/c/ d/e/f/g/ | fd/e/ fF/G/ A/B/A/G/ A/F/G/A/ | %22
 GB/A/ GF/E/ F/E/D/E/ F/G/A/B/ | GB/A/ Bc/d/ c/B/A/B/ c/d/e/f/ | af/g/ af/g/ a/A/B/c/ d/e/f/g/ | %25
 fd/e/ fF/G/ A/B/A/G/ A/d/c/d/ | Bd/c/ BA/G/ A/G/F/G/ A/B/c/d/ | Bd/c/ dc/B/ c/d/e/d/ c/d/B/c/ | %28
 a3 a abag | f3 f fgfe | d3 d d2 A2 | d=cBc ^c4 | dad'a Aeae | Bfbf Fcfc | Gdgd DAdA | Gdgd Aeae | %36
 f2 d'4 c'2- | c'2 b4 a2- | a2 g2 d'2 a2 | b4 a4 | DAfA Aec'e | Bfbf Fcac | Gdbd DAfA | %43
 Gdbd Aec'e | !fermata!d'8 |] %45
V:2
 d4 a4 | b4 f4 | g4 d4 | g4 a4 | dad'f' Aec'e' | Bfbd' Fcac' | Gdgb DAfa | Gdgb Aeac' | dddd AAAA | %9
 BBBB FFFF | GGGG DDDD | GGGG AAAA | dad'a Aeae | Bfbf Fcfc | Gdgd DAdA | Gdgd Aeae | dddd AAAA | %17
 BBBB FFFF | GGGG DDDD | GGGG AAAA | d'ada c'eAe | bfBf acFc | bdGd aADA | bdGd aeAe | dad'a Aeae | %25
 Bfbf Fcfc | G2 G2 F2 F/G/A/B/ | G2 B2 A/B/c/B/ A/B/G/A/ | f3 f fgfe | d3 d dedc | B3 B A2 F2 | %31
 G4 A4 | D4 A4 | B4 F4 | G4 D4 | G4 A4 | DAfA Aec'e | Bfbf Fcac | Gdbd DAfA | Gdbd Aec'e | %40
 d2 f4 e2- | e2 d4 c2- | c2 B2 d2 a2 | d4 c4 | !fermata!f8 |] %45

